symbolic/16x16/apps/klystrack.svg

<svg xmlns="http://www.w3.org/2000/svg" width="16" height="16" version="1">
 <path style="fill:#737373" d="M 13.804,13.677 14,13.095 V 2.4737 C 14,1.6573 13.343,1 12.526,1 H 1.4737 C 0.65726,1 0,1.6573 0,2.4737 V 13.08 L 0.17744,13.526 C 0.47884,14.285 0.85291,14.729 1.6693,14.729 H 12.255 C 13.072,14.729 13.544,14.451 13.804,13.677 Z"/>
 <path style="fill:#ffc832" d="M 12,7 H 2 C 2,4.2386 4.2386,2 7,2 9.7614,2 12,4.2386 12,7 Z"/>
 <path style="fill:#f3597e" d="M 5,3.9997 H 5.2308 L 8,7 H 5.6923 Z"/>
 <path style="fill:#f3597e" d="M 11.437,8 C 10.381,8 9.0376,8.3492 9,9.9595 9.0132,11.299 9.6422,12.216 10.359,12.023 11.204,11.576 11.184,12.34 11.216,12.603 11.382,13.136 11.704,13.034 12.202,12.995 H 12.232 V 12.998 H 12.668 V 12.996 L 12.798,12.995 C 13.296,13.034 13.619,13.136 13.785,12.603 13.817,12.34 13.796,11.576 14.641,12.023 15.358,12.216 15.987,11.299 16,9.9596 15.962,8.3493 14.619,8.0001 13.563,8.0001 H 12.232 Z"/>
 <path style="fill:#b2bfd9" d="M 2.9704,11 C 1.8419,11 0,11.685 0,13.214 V 13.526 C 0,14.343 0.65726,15 1.4737,15 H 12.526 C 13.343,15 14,14.343 14,13.526 V 12.789 C 14,12.789 14,14 11.421,14 8.3951,14 5.8946,11 2.9704,11 Z"/>
 <path style="fill:#17191e" d="M 4,11.121 V 15 H 4.5 V 11.275 C 4.3336,11.223 4.1684,11.159 4,11.121 Z M 1.5,11.314 C 1.3253,11.388 1.1588,11.479 1,11.58 V 14.916 C 1.1492,14.967 1.3079,15 1.4746,15 H 1.5 Z M 7,12.416 V 15 H 7.5 V 12.682 C 7.3338,12.591 7.1658,12.507 7,12.416 Z M 13.5,13.523 C 13.37,13.614 13.209,13.699 13,13.773 V 14.916 C 13.187,14.853 13.355,14.753 13.5,14.625 Z M 10,13.773 V 15 H 10.5 V 13.904 C 10.331,13.872 10.166,13.82 10,13.773 Z"/>
</svg>

<svg xmlns="http://www.w3.org/2000/svg" width="16" height="16" version="1"><path style="fill:#737373" d="m13.804 13.677.196-.582V2.474A1.47 1.47 0 0 0 12.526 1H1.474A1.47 1.47 0 0 0 0 2.474V13.08l.177.446c.302.759.676 1.203 1.492 1.203h10.586c.817 0 1.289-.278 1.549-1.052z"/><path style="fill:#ffc832" d="M12 7H2a5 5 0 0 1 10 0z"/><path style="fill:#f3597e" d="M5 4h.23L8 7H5.692zM11.437 8c-1.056 0-2.4.35-2.437 1.96.013 1.339.642 2.256 1.359 2.063.845-.447.825.317.857.58.166.533.488.431.986.392h.03v.003h.436v-.002l.13-.001c.498.039.821.141.987-.392.032-.263.011-1.027.856-.58.717.193 1.346-.724 1.359-2.063C15.962 8.35 14.619 8 13.563 8h-1.331z"/><path style="fill:#b2bfd9" d="M2.97 11C1.842 11 0 11.685 0 13.214v.312A1.47 1.47 0 0 0 1.474 15h11.052A1.47 1.47 0 0 0 14 13.526v-.737S14 14 11.421 14c-3.026 0-5.526-3-8.45-3z"/><path style="fill:#17191e" d="M4 11.121V15h.5v-3.725c-.166-.052-.332-.116-.5-.154zm-2.5.193a3.421 3.421 0 0 0-.5.266v3.336c.15.051.308.084.475.084H1.5zM7 12.416V15h.5v-2.318c-.166-.091-.334-.175-.5-.266zm6.5 1.107c-.13.091-.291.176-.5.25v1.143c.187-.063.355-.163.5-.291zm-3.5.25V15h.5v-1.096c-.169-.032-.334-.084-.5-.131z"/></svg>
